public/svg/globusWithWireframe.svg

<svg width="56" height="56" viewBox="0 0 56 56" fill="none" xmlns="http://www.w3.org/2000/svg">
<path d="M28 49C39.598 49 49 39.598 49 28C49 16.402 39.598 7 28 7C16.402 7 7 16.402 7 28C7 39.598 16.402 49 28 49Z" stroke="#1B5BF7" stroke-width="3.5" stroke-linecap="round" stroke-linejoin="round"/>
<path d="M8.40039 21H47.6004" stroke="#1B5BF7" stroke-width="3.5" stroke-linecap="round" stroke-linejoin="round"/>
<path d="M8.40039 35H47.6004" stroke="#1B5BF7" stroke-width="3.5" stroke-linecap="round" stroke-linejoin="round"/>
<path d="M26.8332 7C22.9023 13.2991 20.8184 20.575 20.8184 28C20.8184 35.425 22.9023 42.7009 26.8332 49" stroke="#1B5BF7" stroke-width="3.5" stroke-linecap="round" stroke-linejoin="round"/>
<path d="M29.167 7C33.0979 13.2991 35.1818 20.575 35.1818 28C35.1818 35.425 33.0979 42.7009 29.167 49" stroke="#1B5BF7" stroke-width="3.5" stroke-linecap="round" stroke-linejoin="round"/>
</svg>

<svg xmlns="http://www.w3.org/2000/svg" width="56" height="56" fill="none" stroke="#1b5bf7" stroke-width="3.5" stroke-linejoin="round" xmlns:v="https://vecta.io/nano"><path d="M28 49c11.598 0 21-9.402 21-21S39.598 7 28 7 7 16.402 7 28s9.402 21 21 21z"/><g stroke-linecap="round"><path d="M8.4 21h39.2M8.4 35h39.2"/><path d="M26.833 7c-3.931 6.299-6.015 13.575-6.015 21s2.084 14.701 6.015 21m2.334-42c3.931 6.299 6.015 13.575 6.015 21s-2.084 14.701-6.015 21"/></g></svg>
